lib/assets/icons/svg/outlined-action-favorite.svg

<svg viewBox="0 0 24 24" xmlns="http://www.w3.org/2000/svg">
  <path  d="M 16.845 19.355 C 16.675 19.354 16.51 19.298 16.375 19.195 L 12.075 16.245 L 7.655 19.145 C 7.131 19.464 6.457 19.107 6.425 18.495 L 6.425 8.895 C 6.425 8.619 6.649 8.395 6.925 8.395 L 17.125 8.395 C 17.401 8.395 17.625 8.619 17.625 8.895 L 17.625 18.545 C 17.636 18.726 17.578 18.904 17.465 19.045 C 17.343 19.211 17.159 19.319 16.955 19.345 Z M 12.075 15.205 C 12.208 15.209 12.338 15.243 12.455 15.305 L 16.625 18.145 L 16.625 9.395 L 7.425 9.395 L 7.425 18.145 L 11.595 15.355 C 11.738 15.262 11.904 15.21 12.075 15.205 Z M 17.925 7.745 L 6.075 7.745 C 5.799 7.745 5.575 7.521 5.575 7.245 L 5.575 5.145 C 5.575 4.869 5.799 4.645 6.075 4.645 L 17.925 4.645 C 18.201 4.645 18.425 4.869 18.425 5.145 L 18.425 7.245 C 18.425 7.521 18.201 7.745 17.925 7.745 Z M 6.575 6.745 L 17.425 6.745 L 17.425 5.645 L 6.575 5.645 Z"/>
</svg>

<svg xmlns="http://www.w3.org/2000/svg" viewBox="0 0 24 24"><path d="M16.845 19.355a.782.782 0 0 1-.47-.16l-4.3-2.95-4.42 2.9a.81.81 0 0 1-1.23-.65v-9.6a.5.5 0 0 1 .5-.5h10.2a.5.5 0 0 1 .5.5v9.65a.73.73 0 0 1-.16.5.75.75 0 0 1-.51.3zm-4.77-4.15a.867.867 0 0 1 .38.1l4.17 2.84v-8.75h-9.2v8.75l4.17-2.79a.93.93 0 0 1 .48-.15zm5.85-7.46H6.075a.5.5 0 0 1-.5-.5v-2.1a.5.5 0 0 1 .5-.5h11.85a.5.5 0 0 1 .5.5v2.1a.5.5 0 0 1-.5.5zm-11.35-1h10.85v-1.1H6.575z"/></svg>
